static/images/icons/youtube-dark.svg

<svg fill="none" height="42" viewBox="0 0 42 42" width="42" xmlns="http://www.w3.org/2000/svg"><path clip-rule="evenodd" d="m18.0898 25.9968v-9.001l7.835 4.5zm17.244-11.713c-.1705-.6357-.505-1.2155-.9701-1.6813s-1.0444-.8012-1.6799-.9727c-1.736-.672-18.55-1-23.42596.019-.63549.1715-1.21478.5069-1.67986.9727s-.79962 1.0456-.97014 1.6813c-.784 3.443-.843 10.886.019 14.406.17061.6357.50519 1.2155.97025 1.6812.46507.4658 1.04431.8013 1.67975.9728 3.43696.793 19.77796.904 23.42696 0 .6355-.1715 1.2147-.507 1.6798-.9728.4651-.4657.7996-1.0455.9702-1.6812.835-3.75.894-10.732-.02-14.425z" fill="#105696" fill-rule="evenodd"/></svg>

<svg width="42" height="42" viewBox="0 0 42 42" fill="none" xmlns="http://www.w3.org/2000/svg">
<path fill-rule="evenodd" clip-rule="evenodd" d="M18.0898 25.9968V16.9958L25.9248 21.4958L18.0898 25.9968ZM35.3338 14.2838C35.1633 13.6481 34.8288 13.0683 34.3637 12.6025C33.8986 12.1367 33.3193 11.8013 32.6838 11.6298C30.9478 10.9578 14.1338 10.6298 9.25784 11.6488C8.62235 11.8203 8.04306 12.1557 7.57798 12.6215C7.1129 13.0873 6.77836 13.6671 6.60784 14.3028C5.82384 17.7458 5.76484 25.1888 6.62684 28.7088C6.79745 29.3445 7.13203 29.9243 7.59709 30.39C8.06216 30.8558 8.6414 31.1913 9.27684 31.3628C12.7138 32.1558 29.0548 32.2668 32.7038 31.3628C33.3393 31.1913 33.9185 30.8558 34.3836 30.39C34.8487 29.9243 35.1832 29.3445 35.3538 28.7088C36.1888 24.9588 36.2478 17.9768 35.3338 14.2838Z" fill="#105696"/>
</svg>
